app/dist/common/images/safe-bulkers.svg

<svg height="18" width="18" xmlns="http://www.w3.org/2000/svg"><path d="m0 0h18v18h-18z" fill="#f0f3fa"/><path d="m9 8v-3h1v2h5v3.9l-.85 1.1h-4.02l.84-1h2.68l.35-.54v-2.46z" fill="#182e64"/><path d="m6.05 7h1.95v1h-1.53l-.47.53v.47h4v2.01l-.9.99h-7.1l.79-1h5.81l.39-.38v-.62h-3.99v-1.94z" fill="#00439a"/></svg>

<!-- by TradingView --><svg xmlns="http://www.w3.org/2000/svg" width="18" height="18"><path fill="#F0F3FA" d="M0 0h18v18H0z"/><path d="M9 8V5h1v2h5v3.9l-.85 1.1h-4.02l.84-1h2.68l.35-.54V8H9z" fill="#182E64"/><path d="M6.05 7H8v1H6.47L6 8.53V9h4v2.01l-.9.99H2l.79-1H8.6l.39-.38V10H5V8.06L6.05 7z" fill="#00439A"/></svg>
